X:1
T:Konigsmarsch
T:Hans von Bulow
%%score { ( 1 2 ) | ( 3 4 5 ) }
L:1/8
Q:1/2=80
M:2/2
K:E
V:1 bass nm="Piano" snm="Pno."
V:2 bass 
V:3 bass 
V:4 bass 
V:5 bass 
V:1
 z4 ^B,4 | z4 C4 | !^![E,E]8- | [E,E]6 (3[E,E][E,E][E,E] | .[E,E]2[K:treble] .G2 .B,2 .G2 | %5
!sfz! [B,EGB]4- [B,EGB] z (3GGG | G2 B2 E2 [B,B]2 |!sfz! [EGce]4- [EGce] z (3[Ee][Ee][Ee] | %8
 [Dd]2!<(! [^A,D^^F^A]2 [CGc]2 (3[Cc][Cc][Cc]!<)! | %9
 [B,B]2!<(! [^F,B,D^F]2 [A,EA]2 (3[A,A][A,A][A,A]!<)! | [G,G]2 [CEAc]2 [B,EB]2 [EGBe]2 | %11
 [FBf]6 (3[Ff][Ff][Ff] | [Fcf]2 [Aa]2 [FAc]2 [FA^d]2 | [Gce]4- [Gce] z e2 | %14
 [Gdg]2 [Bb]2 [GBd]2 [GB^e]2 | [^Adf]4- [Adf] z (3[Ff][Ff][Ff] | %16
 [FBf]2 [Bb]2 [^^F^^f]2 (3[Gg][Gg][Gg] | [GBg]2 [Bb]2 [^F^f]2!f! (3[^EBc^e][EBce][EBce] | %18
 [^EBc^e]2 [GBcg]2 [^DB^d]2 [FBf]2 |!<(! [^EB]2 [=E^A]2!>(! [DAc]2 (3[=DFB=d][DFBd][DFBd]!<)!!>)! | %20
!f! [=DFB=d]2 [C^EGc]2 [FBf]2 [=DGB]2 | [GB^eg]4 =E4 | [^DF]3 z/ F/ [ce]2 [Bd] z/ F/ | %23
 [eg]2 [df] z/ B/!sfz! [ce^^f]2 [^Ag] z/ ^a/ | [c^fc']2 [Bb] z/ f/ [c'e']2 [bd'] z/ f/ | %25
 [e'g']2 [d'f'] z/ b/!sfz! [^^fe'^^f']2 [ge'g'] z/ [^a^a']/ | %26
 [bd'b']2 (3[bb'][bb'][bb'] [bb']2 (3[Bb][Bb][Bb] | [Bb]2 (3[bb'][bb'][bb'] [bb']2 (3[Bb][Bb][Bb] | %28
 [B=g-b-]4 [gb][ee'][=d=d']g | [=G=g][Ff]e=d [Ge]g[Aa][^A^a] | [Bb-]4 b[ee'][=d=d']=g | %31
 [=G=g][Ff]e=d [Ge]g[Aa][^A^a] | [Bb]4- [Bb][ff'][ee']b | a[=d=d'][=c=c']g fg[Aa][^A^a] | %34
 [B=gb]4- [Bgb][ee'][=d=d']g | [=G=g][Ff]e=d eg[Aa][^A^a] |!sfz! [Bb]4- [Bb][=a=a'][=g=g']=d' | %37
 [=d=d']b[=c=c'] z/ [ee']/ [ee']^c'[dd'] z/ [=f=f']/ | %38
 [=f=f'][^d^d'][ee'] z/ [^f^f']/ [aa'][=g=g'][ff'] z/ [ee']/ | %39
!f! [bd'b']4 [ae'a'][=g=g'][ff'] z/ [ee']/ | [b^d'b']4 [ae'a'][=g=g'][ff'] z/ [ee']/ | %41
!mf! e^^cd[Aa] ecd[^A^a] | e^^cd[Bb] ecd[=c=c'] | e^^cd[Aa] ecd[^A^a] | e^^cd[Bb] ecd[=c=c'] | %45
 e^^cd[=c=c'] e^^cd[=c=c'] | e^^cd[=c=c'] e^^cd[=c=c'] |!f! A8 | [A,A]8 | [A,A]8- | [A,A]6 z2 | %51
 z4 ^E4 | z4 F4 | z4 ^^C4- | C2 D2 F2 (3[A,B,AB][A,B,AB][A,B,AB] | %55
 [A,B,AB]2 [^EA=c]2 F2 (3[=CAc][CAc][CAc] | [=CA=c]2 [^EA^c]2 F2 (3[^CAc][CAc][CAc] | %57
 [CAc]2 [^EA=d]2 F2 (3[=DAd][DAd][DAd] | [Ae]2 [Ad]4 [ABd]2- | [ABd]2 [A=c^d]4 [Acd]2- | %60
 [Acd]2 [=FA=c^d]2 [FAcd]2 (3[=EA^c=e][EGBe][E^^F^Ae] | [EGBe]2 [Gg]2 B2 [Gg]2 | %62
 [Begb]4- [Begb] z (3[Gg][Gg][Gg] | [Gg]2 [Bb]2 e2 [Bb]2 | [egbe']4- [egbe'] z!f! (3[Bb][Bb][Bb] | %65
 [^A^a]2 [Ee]2 [=Ae=a]2 (3[Aa][Aa][Aa] | [Gg]2 [Ee]2 [=Ge=g]2 (3[Gg][Gg][Gg] | %67
 [Ff]2 [=CDF=c]2 [B,EB]2 (3[=G^A^c=g][Gg][Gg] | [Ff]2 [=CDF=c]2 [B,EB]2 (3[=G^A^c=g][Gg][Gg] | %69
 [Ff]2 [Bdfb]2 [FBdf]2 [^Adf^a]2 | [F^Adf]2 [Bdfb]2 [FBdf]2 [^Bdf^b]2 | %71
!ff! [cec']4- [cec'] z (3[e=c'e'][ee'][ee'] | [ebe']2 [gg']2 [Bb]2 [^Be^b]2 | %73
 [cec']4- [cec'] z (3[e=c'e'][ee'][ee'] | [ebe']2 [gg']2 [Bb]2 [^Be^b]2 | %75
 [cec']6 (3[ge'g'][ge'g'][ge'g'] | [ge'g']6 (3[^Ae^a][Aea][Aea] | [^Aef^a]3 z [cefc']3 z | %78
 [GBeg]3 z [Beb]3 z | [FAf]4- [FAf] z [Gg][Aa] | [Gdfg]4- [Gdfg] z (3[=G=Be=g][GBeg][GBeg] | %81
 [=GBe=g]2 [F^Acf]2 [Beb]2 [=Gce]2 | [ce^ac']3 z [ea^b]3 c'/d'/ | [d=ac']2 [Ac]4 [FAd]2 | %84
 [GBf]2 e z/ B/ [fa]2 [eg] z/ B/ | [ac']2 [gb] z/ e/ [a^b]2 [dac'] z/ d'/ | %86
 [fgbf']2 [ee'] z/ B/ [fa]2 [eg] z/ B/ | [ac']2 [gb] z/ e/ [^Ba^b]2 [cac'] z/ [dd']/ | %88
 [ege']2 z3/2[K:bass] B,,/ F,2 E, z/ B,,/ | A,2 G, z/ E,/ C2 B, z/ G,/ | %90
 E2 =F z[K:treble]!f! [B,=D]4- | [B,D]3 z!mf! [B,^D]4- | [B,D]3 z!mp! [^B,^D]4- | %93
 [B,D]3 z!p! [^B,DF]4- | [B,DF]3 z [^B,DF]4- | %95
[Q:1/4=150] [B,DF]8-[Q:1/4=140][Q:1/4=130][Q:1/4=120] | %96
[Q:1/4=110] [B,DF]2[Q:1/4=90] F4[Q:1/4=70][Q:1/4=50] G2 | %97
[Q:1/4=100]"^\n" [^B,^DF]E[Q:1/4=120]c=d e2 [Ac^e]2 | [Acf]6 c2 | z{/e} =dcB [FA]2 [FA]2 | %100
 [FA]3 [^Dc] [=DB]GFE | z Ec=d e2 [Acf]2 | [^B^dg]6 d2 | z d[Gcd]e z e[^Ae]f | %104
 [Bg]=ab[=Ad] [Ge]2 E z |!<(! z Ec^d e2 !arpeggio![^eac'^e']2!<)! |!f! !arpeggio![fac'f']6 [cc']2 | %107
 z{/e} =dcB [FA]2 [FA]2 | [FA]3 [^Dc] [=DB]GFE | z!<(! Ec=d e2 !arpeggio![fac'f']2!<)! | %110
!f! !arpeggio![g^b^d'g']6 [dd']2 | z [dgd'][dgd'][ee'] z [e^ae'][eae'][ff'] | %112
 [ge'g'][=a=a'][bb'][dd'] [ee']2 z2 | z F[=DB][Fc] [B=d]2 [FBd]2 | %114
 [Ac]2- [Ac]/[GB]/[CG]/[GB]/ [FA]2 z2 | z F[=DB][Fc] [B=d]2 [FBd]2 | [F^B]4- [FB] z [GBd]2 | %117
 [G=B=de]3 g/f/ e2 [GB]2 | ^Bc{/e}=dc a2 [ce]2 | [B=d]6 [EG^B]2 | ce{/g}fe c'2 [ca]2 | %121
 a3 c'/b/ a2 g2 | f3 a/g/ f2 e2 | ef/e/=d^A cBFB | =AG^DG F=DB,^B, | z Ec=d e2 [Ac^e]2 | %126
 [Acf]6 c2 | z{/e} =dcB [FA]2 [FA]2 | A3 c BGFE | z Ec=d e2 !arpeggio![fac'f']2 | %130
 [g^b^d'g']6 [dd']2 | z [dd'][dgd'][ee'] z [ee'][e^ae'][ff'] | [gg'][=a=a'][bb'][df'] [ege']2 z2 | %133
 z F[=DB][Fc] [B=d]2 [FBd]2 | [Ac]2- [Ac]/[GB]/[CG]/[GB]/ [FA]2 z2 | z F[=DB][Fc] [B=d]2 [FBd]2 | %136
 [F^B^d]3 f/e/ d2 [GBd]2 | [G=B=de]3 g/f/ e2 [EGB]2 | ^Bc{/e}=dc a2 [EAce]2 | %139
 [=B=d^e]3 g/f/ =e2 [EG^B]2 | ce{/g}[cf]e c'2 [Aa]2 | [Aca]3 c'/b/ [A^B^da]2 [Gg]2 | %142
 [Fcf]3 a/g/ [=Gcf]2 e2 | ef/e/=d^A cBFB | [EA]GFB [EA]G[=DF]E | z Ec=d e2 [Ace]2 | %146
 !arpeggio![Acea]6 e2 | z A=de =f2 [_Bfa_b]2 | !arpeggio![=B=fa=b]6 [=c^fa=c']2 | %149
[Q:1/2=80] [^ca^c']4- [cac'][ff'][ee']a | [AB=da][Gg]fe [Af]a[Bb][^B^b] | %151
 [cac']4- [cac'][ff'][ee']a | [AB=da][Gg][Ff][Ee] [Ff][Aa][Bb][^B^b] | %153
 [cac']4- [cac'][bb'][aa'][ee'] | [e-e'][ec'][=d=d'] z/ [ff']/ [f-f'][f^d'][ee'] z/ [=g=g']/ | %155
!8va(! [=g=g'][^e^e'][ff'] z/ [^g^g']/ [bb'][aa'][gg'] z/ [ff']/!8va)! | %156
!8va(! [c'^e'c'']4 [bf'b'][aa'][gg'] z/ [ff']/!8va)! | %157
!8va(! [c'^e'c'']4 [bf'b'][aa'][gg'] z/ [ff']/!8va)! | [Bb][Aa][Gg][Ff] z2 (3[Cc][Cc][Cc] | z4 A4 | %160
 z4 _B4 | z4 E4- | E2 =F2 A2 (3[=D=d][Dd][Dd] | z4 ^A4 | z4 =B4 | z4 ^E4- | %166
 E2 F2 ^A2 (3[^D^d][Dd][Dd] | [Dd]2 [Ee]4 (3[Dd][Dd][Dd] | [Dd]2 [Ee]4 (3[Dd][Dd][Dd] | %169
 [Dd]2 [Ee]2 [Dd]2 [Ee]2 | [Dd]2 [E=Ge]4 (3[E^Ge][EGe][EGe] | [EGb]2 [Geg]2 [B,B]2 [Geg]2 | %172
 [Bgb]4- [Bgb] z (3[Beg][^Aeg][=Aeg] | [Geg]2 [Bb]2 [EBe]2 [Bab]2 | %174
 [ege']4- [ege'] z (3[Ee][Ee][Ee] | [Dd]2 [^A,D^^F^A]2 [CGc]2 (3[Cc][Cc][Cc] | %176
 [B,B]2 [^F,B,D^F]2 [=A,E=A]2 (3[A,EA][A,^EA][A,FA] | [G,=EG]2 [CEAc]2 [B,EB]2 [EGBe]2 | %178
 [FBf]4 d2 (3[Ff][Ff][Ff] | [Fcf]2 [Aa]2 [Cc]2 [^DFA^d]2 | [Ge]4- [Ge] z (3[Gg][Gg][Gg] | %181
 [Gdg]2 [Bb]2 [Dd]2 [^EGB^e]2 | [^Af]4- [Af] z (3[Ff][Ff][Ff] | %183
 [FBf]2 [Bb]2 [^^FB^^f]2 (3[GBg][GBg][GBg] | [GBg]2 [Bb]2 [^FB^f]2 (3[^EBc^e][EBce][EBce] | %185
 [^EBc^e]2 [GBcg]2 [DBd]2 [FBf]2 | [^EB]2 [=E^A]2 [DAc]2 (3[FB=d][FBd][FBd] | %187
 [FB=d]2 [^EGc]2 [FBf]2 [=DGB]2 | [GB^eg]4 [C=E]4 | [^DFc]2 B z/ F/ [ce]2 [Bd] z/ F/ | %190
 [eg]2 [df] z/ B/ [ce^^f]2 [^Ag] z/ ^a/ | [dfc']2 b z/ f/ [ec'e']2 [dbd'] z/ f/ | %192
 [e'g']2 [fd'f'] z/ B/!8va(! [^^fe'^^f']2 [ge'g'] z/ [^a^a']/!8va)! | %193
!8va(! [bd'b']2 (3[Bb][Bcb][B^^cb] [Bdb]2 (3[Beb][B^eb][Bfb]!8va)! | [B=gb]4- [Bgb][ee'][=d=d']g | %195
 [=G=c=g][Ff]e[F=d] [Ge]g[Aa][^A^a] | [B=gb]4- [Bgb][ee'][=d=d']g | %197
 [=G=c=g][Ff][Ae]=d [Ge]g[Aea][^A^a] | [B=gb]4- [Bgb][ff'][ee']b | %199
 =a[=d=d'][=c=c']=g fg[Aa][^A^a] | [B=gb]4- [Bgb][aa'][g=g'] z/ [=d=d']/ | %201
 [=d=d'][Bb][=c=c'] z/ [ee']/ [ee'][^c^c'][dd'] z/ [=f=f']/ | %202
 [=f=f'][^d^d'][ee'] z/ [^f^f']/ [aa'][=g=g'][ff'] z/ [ee']/ | %203
 [b^d'b']4 [ae'a'][=g=g'][ff'] z/ [ee']/ | [bd'b']4 [ae'a'][=g=g'][ff'][ee'] | %205
 [Aea][=G=g][Ff][Ee] [Aea][Gg][Ff][Ee] | [B,B]2 (3[=CA=c][CAc][C=Gc] [CFc]2 (3[=DB=d][DBd][DAd] | %207
 [=D^G=d]2 (3[E=ce][Ece][EBe] [EAe]2 (3[=Fd=f][Fdf][Fdf] | %208
 [FAcf]2 (3[=FA=d=f][FAdf][FAdf] [EGBe]2 (3[FAdf][FAdf][FAdf] | %209
 [EGBe]2 [=FA=d=f]2!8va(! [egbe']2 [fa=d'=f']2!8va)! |!8va(! [egbe']4 [=fa=d'=f']4!8va)! | %211
!8va(! [^fae'^f']4 [=gae'=g']4!8va)! |!8va(! [^gbe'^g']4- [gbe'g'][^c'^c''][bb']e'!8va)! | %213
!8va(! [eae'][dd'][cc'][Bb] [cc'][ee'][ff'][^^f^^f']!8va)! | %214
!8va(! [ge'g']4- [ge'g'][c'c''][bb']e'!8va)! | %215
!8va(! [eae'][dd'][cc'][Bb] [cc'][ee'][ff'][^^f^^f']!8va)! | %216
!8va(! [ge'g']4- [ge'g'][f'f''][e'e''] z/ [Bb]/!8va)! | %217
 [Bb][Gg][Aa] z/ [cc']/ [cc'][^A^a][Bb] z/ [=d=d']/ | %218
 [=d=d'][^B^b][cc'] z/ [^d^d']/ [ff'][ee'][dd'] z/ [cc']/ |!8va(! [ge'g']4 [c'a'c'']4!8va)! | %220
 [bg'b']3 z/ b/ b[dd'][ff'][^^f^^f'] | [ge'g']4 [c'a'c'']4 | [bg'b']3 z/ b/ bd'[ff'][^^f^^f'] | %223
 [gd'g']3 z/ [=B=b]/ [Beb][Gg][Aa] z | [gd'g']3 z/ [=B=b]/ [Beb][^G^g][Aa] z/ [Bb]/ | %225
 [B=fb][Gg][Aa] z/ [Bb]/ [Beb][Gg][Aa] z/ [^A^a]/ | [^Ae^f^a]3 z [cefc']3 z | [GBeg]3 z [Beb]3 z | %228
 [FAef]4 d2 [Gg][Aa] | [Gdfg]4- [Gdfg] z (3[=GBe=g][GBeg][GBeg] | [=GBe=g]3 z [F^Aef]3 z | %231
 [Begb]3 z [E=Gce]3 z | [ce=ac']6 (3[EAc][EAc][EAc] | [F=c=d]2 [FA^d]3 [FAd] [FA]2 | %234
 [GBf]2 e z/ B/ [fa]2 [eg] z/ B/ | [ac']2 [gb] z/ e/ [f^ab]2 [dc'] z/ d'/ | %236
 [fg=bf']2 [ee'] z/ B/ [Afa]2 [Geg] z/ B/ | [ac']2 [gb] z/ e/ [^Ba^b]2 [cdc'] z/ [dd']/ | %238
 [ege']2 z2 ^B4 | z4 c4 | z4 ^^F4- | F2 G2 =B2 (3[Geg][Geg][Geg] | z4 ^B4 | z4 c4 | z4 ^A4- | %245
 A2 [Gceg]2 [G=Beg]2 [Geg]2 | [Geg]2 (3EEE EGB,G | [B,EGB]2 (3GGG GBEB | %248
 [EGe]2 (3[Ee][Ee][Ee] [EAce]2 [FAcf]2 | [GBeg]2 (3[Gg][Gg][Gg] [Gceg]2 [Acea]2 | %250
 [Begb']2 (3[ceac'][ceac'][ceac'] [ceac']2 [ceac']2 | [egbe']3 z [fbd'f']3 z | [gbd'g']8 | %253
 [fabf']8 | [egbe']2 z2 [be'g'b']2 z2 | [G,B,E]8 |] %256
V:2
 !^![E,E]8 | !^![E,E]8 | z4 ^^F,4- | F,2 .G,2 .=B,2 .G,2 | x2[K:treble] x6 | x8 | x8 | x8 | x8 | %9
 x8 | x8 | e4 d2 =d2 | x8 | x6 (3[Gg][Gg][Gg] | x8 | x8 | x8 | x8 | x8 | c3 d/e/ d2 z2 | x8 | %21
 z4 T^A4{GA} | c2 B z z4 | x8 | x8 | x8 | x8 | x8 | x8 | x8 | x8 | x8 | x8 | x8 | x8 | x8 | x8 | %37
 x8 | x8 | x8 | x8 | x8 | x8 | x8 | x8 | x8 | x8 | z4 ^E4 | z4 F4 | z4 ^B,4- | %50
 B,2 C2 E2 (3[A,=B,A=B][A,B,AB][A,B,AB] | [A,B,AB]8 | [A,B,AB]8 | [A,B,AB]8- | [A,B,AB]6 z2 | x8 | %56
 x8 | x8 | =D2 ^E2 F2 E2 | F2 ^E2 F2 =F2 | F2 z2 z4 | x8 | x8 | x8 | x8 | x8 | x8 | x8 | x8 | x8 | %70
 x8 | x8 | x8 | x8 | x8 | x8 | x8 | x8 | x8 | e4 d z z2 | x8 | x8 | x8 | x8 | x8 | x8 | x8 | x8 | %88
 x7/2[K:bass] x9/2 | x8 | x4[K:treble] x4 | x8 | x8 | x8 | x8 | x8 | z2 z2 [=B,=D]4 | x8 | x8 | %99
 z F3 z4 | x8 | x8 | x8 | x8 | x8 | x8 | x8 | z F3 z4 | x8 | x8 | x8 | x8 | x8 | x8 | x8 | x8 | %116
 ^d3 f/e/ d z z2 | x8 | z2 A4 z2 | ^e3 g/f/ =e2 z x | c6 z2 | c4 [^B^d]4 | c4 [=Gc]4 | F4- F z z2 | %124
 x8 | x8 | x8 | z F3 z4 | [^DF]4 =D4 | x8 | x8 | x8 | x8 | x8 | x8 | x8 | x8 | x8 | x8 | x8 | x8 | %141
 x8 | x8 | [FB]2 F4 z2 | x8 | x8 | x8 | x8 | x8 | x8 | x8 | x8 | x8 | x8 | x8 |!8va(! x8!8va)! | %156
!8va(! x8!8va)! |!8va(! x8!8va)! | x8 | [Cc]8 | [Cc]8 | [Cc]8- | [Cc]6 z2 | [=D=d]8 | [=D=d]8 | %165
 [=D=d]8- | [Dd]6 z2 | x8 | x8 | x8 | x8 | x8 | x8 | x8 | x8 | x8 | x8 | x8 | e3 d/c/ d2 =d2 | x8 | %180
 E2 z2 z2 e2 | x8 | F2 z2 z4 | x8 | x8 | x8 | c3 d/e/ d2 z2 | x8 | z4 T^A4{GA} | x8 | x8 | x8 | %192
 x4!8va(! x4!8va)! |!8va(! x8!8va)! | x8 | x8 | x8 | x8 | x8 | x8 | x8 | x8 | x8 | x8 | x8 | x8 | %206
 x8 | x8 | x8 | x4!8va(! x4!8va)! |!8va(! x8!8va)! |!8va(! x8!8va)! |!8va(! x8!8va)! | %213
!8va(! x8!8va)! |!8va(! x8!8va)! |!8va(! x8!8va)! |!8va(! x8!8va)! | x8 | x8 |!8va(! x8!8va)! | %220
 x8 | x8 | x8 | x8 | x8 | x8 | x8 | x8 | x8 | x8 | x8 | x8 | x8 | z6 Td2{^cd} | x8 | x8 | x8 | x8 | %238
 x8 | [Ee]8 | [Ee]8- | [Ee]6 z2 | [Geg]8 | [Geg]8 | [Geg]8- | [Geg]2 z2 z4 | x8 | x8 | x8 | x8 | %250
 x8 | x8 | x8 | x8 | x8 | x8 |] %256
V:3
!f! z4 [^B,,,^B,,]4 | z4 [C,,C,]4 | !^!E,,8- |!<(! E,,8!<)! |!ff! .[E,,,E,,]2 .G,2 .B,,2 .G,2 | %5
 [E,,B,,E,]4- [E,,B,,E,] z (3G,G,G, | G,2 B,2 E,2 z2 | [C,,G,,C,]4- [C,,G,,C,] z z2 | %8
 z2 [D,,D,]2 [E,,E,]2 z2 | z2 [B,,,B,,]2 [C,,C,]2 z2 | z2 [A,,E,A,]2 [G,,E,G,]2 [E,,E,]2 | %11
 F,,4 B,,,2 z2 | [F,,A,,C,F,]2 z2 z2 (3[C,C][C,C][C,C] | [C,C]2 [E,E]2 [G,,G,]2 [^A,,^A,]2 | %14
 !arpeggio![B,,B,]4- [B,,B,] z (3[D,D][D,D][D,D] | [D,D]2 [F,F]2 [^A,,^A,]2 [B,,B,]2 | %16
 [^^C,,B,,^^C,]4 [D,,B,,D,]2 [B,,B,]2 | [E,,B,,E,]4 [=D,,B,,=D,]2 (3[C,,C,][C,,C,][C,,C,] | %18
 [C,,C,]2 [=E,,=E,]2 [F,,F,]2 [=D,,=D,]2 | [G,,G,]2 [F,,F,]2 [^^F,,^^F,]2 (3[G,,G,][G,,G,][G,,G,] | %20
 [G,,G,]2 [B,,B,]2 [^D,,^D,]2 [F,,F,]2 | [C,,C,]4 [F,C]4 | [B,,,B,,]3 z/ F,/ [CE]2 [B,D] z/ F,/ | %23
 [EG]2 [DF] z [F,,F,]2 [CE] z | !arpeggio![B,,F,D]3 z/ F,/ [CE]2 [B,D] z/ F,/ | %25
[K:treble] [EG]2 [DF] z/ F,/ [CEB]2 ^A z |[K:bass]!ff! [B,,,B,,]4 [B,,B,]2 [B,,,B,,][^A,,,^A,,] | %27
 [=A,,,=A,,]4 [B,,B,]2 [A,,,A,,][G,,,G,,] | [=G,,,=G,,]2 [=D,=G,B,][D,G,B,] [D,G,B,]2 [B,=D=G]2 | %29
 [=D,,=D,]2 [D,A,=C]2 =G,2 [D,F,C]2 | [=G,,,=G,,]2 [=D,=G,B,][D,G,B,] [D,G,B,]2 [B,=D=G]2 | =C8 | %32
 !arpeggio![B,,,^D,]2 [A,B,F][A,B,F] [A,B,F]2 !arpeggio![=G,B,=G]2 | %33
 [F,A,=D]2 !arpeggio![E,=G,E]2 [^D,F,B,]2 [=D,F,=C]2 | %34
 [=G,,,=G,,]2 [=D,=G,B,][D,G,B,] [D,G,B,]2 [B,=D=G]2 | %35
 [=D,,=D,]2[K:treble] [A,=C=G]F [=G,CE]2 [F,C=D] z | %36
[K:bass] [=G,,=F,]2 [=G,B,=F][G,B,F] [G,B,F]2 [G,,F,]2 | %37
 !arpeggio![E,,=G,]2 [G,=CE]2 [B,,,B,,]2 [G,=D=F]2 | [=C,,=C,]2 [=G,=CE]2 z2 [C,E,C]2 | %39
 !arpeggio![=G,,^D,]3 z E,2 =C z | !arpeggio![=G,,^D,]3 z E,2 =C z | z2 [F,DF]2 z2 [F,DF]2 | %42
 z2 [F,DF]2 z2[K:treble] (3[A,A][A,A][A,A] | [A,A]2[K:bass] [F,DF]B, z2 [F,DF]^A, | %44
 z2 [F,DF]=A, z2[K:treble] (3[A,A][A,A][A,A] | [A,A]2[K:bass] [^E,=A,^D]2 [F,A,D]2 [G,^B,F]2 | %46
 [=A,^B,F]4 [F,A,D]2[K:treble]!f! (3[A,A][A,A][A,A] |[K:bass] A,8 | A,,8 | A,,8- | A,,4 z4 | %51
 z4 [^E,,^E,]4 | z4 [F,,F,]4 | z4 [^^C,,^^C,]4- | [C,,C,]2 [D,,D,]2 [F,,F,]2 [B,,,B,,]2 | %55
 z2 [^E,A,=C]2 F,2 [B,,,B,,]2 | z2 [^E,A,^C]2 F,2 [B,,,B,,]2 | z2 [^E,A,=D]2 F,2 [B,,,B,,]2 | %58
 z2 [A,^D]4 [A,B,D]2- | [A,B,D]2!ff! [A,=C^D]4 [A,CD]2- | %60
 [A,CD]2 [A,,A,]2 [=C,=C]2!fff! (3[=E,,=E,][E,,E,][E,,E,] | [E,,E,]2 G,2 [B,,B,]2 G,2 | %62
 !///-!E,,2 E,2 z4 | G,2 B,2 [E,E]2 B,2 | !///-![=D,,E,,]2 E,2 [D,,E,,] z z2 | %65
 z2 [C,E,C]2 [=C,E,=C]2 z2 | z2 [B,,E,B,]2 [^A,,E,^A,]2 z2 | %67
 z2 [=A,,B,,=A,]2 [^G,,B,,^G,]2 [E,,B,,E,]2 | z2 [=A,,B,,=A,]2 [^G,,B,,^G,]2 [E,,B,,E,]2 | %69
 z2 [=A,,=A,]2 [D,D]2 [^A,,^A,]2 | [D,D]2 [=A,,=A,]2 [D,D]2 (3[A,,D,F,A,][A,,A,][A,,A,] | %71
 [A,,E,A,]2 [C,C]2 [E,,E,]2 [F,,F,]2 | %72
 [G,,B,,E,G,]4- [G,,B,,E,G,] z (3[A,,E,A,][A,,E,A,][A,,E,A,] | %73
 [A,,E,A,]2 [C,C]2 [E,,E,]2 [F,,F,]2 | %74
 [G,,B,,E,G,]4- [G,,B,,E,G,] z (3[A,,E,A,][A,,E,A,][A,,E,A,] | %75
 [A,,E,A,]2 [C,C]2 [A,,A,]2 [^A,,^A,]2 | [B,,B,]2 [E,E]2 [B,,B,]2 [^B,,^B,]2 | %77
 [C,E,F,C]3 z [=A,,E,F,=A,]3 z | [B,,E,B,]3 z [=G,,B,,E,=G,]3 z | [=C,=C]4 [B,,B,]2 [B,,,B,,]2 | %80
 [^B,,,^B,,]2 D,G, ^B,2 (3[C,C][C,C][C,C] | [C,C]2 [E,E]2 [^G,,^G,]2 [=B,,=B,]2 | %82
 [F,,F,]2 D2 [F,E]C^A,F, | [B,,,B,,]2 ^E2 [B,F]DCB, | [E,,E,]3 z [B,,B,]3 z | %85
 [E,E]3 z !arpeggio![B,,F,A,E]3 D | [E,,E,]3 z/[K:treble] B,/ [FA]2 [EG] z/ B,/ | %87
 [Ac]2 [GB] z[K:bass] !arpeggio![B,,F,A,E]3 D |!ff! [E,,E,]2 z3/2!f! B,,,/ F,,2 E,, z/ B,,,/ | %89
 A,,2 G,, z/ E,,/ C,2 B,, z/ G,,/ | E,2 =F, z2 z2 z/ G,/ | E2 =F z2 z2 z/ G,/ | %92
 ^E2 ^F z2 z2 z/ G,/ | ^E2 F z z2 G,2 | A,2 A,,2 z2 [G,,G,]2 | [A,,A,]2 z2 [G,,G,]2 z2 | %96
 [^D,,^D,]2 z2 [E,,E,]2 z2 | z CA,F, E,A,CC, | z CA,G, F,CA,F | z F,E=D CB,A,F, | %100
 CF, A,2 [E,G,]2 E,,2 | z CA,F, E,A,CE, | z ^D^B,A, G,DB,G | C,G,FE =C,F,FE | %104
{/B,,} B,^CDF z ^A,B,^B, | z CA,F, E,A,CC, | z CA,G, F,CA,F |!mf! z F,E=D CB,A,F, | %108
 CF, A,2 [E,G,]2 E,,2 | z CA,F, E,A,CC, | z D^B,A, G,DB,G | C,G,FE =C,F,FE | %112
{/B,,} B,^CDA !arpeggio![E,G]EB,E, | z CB,F, =D,F,B,,G,, | C,,C,^D,^E, F,,CA,F, | %115
 z CB,F, =D,F,B,,A,, | G,,^D,F,D ^B, z [G,B,DF]2 | E,,2 !arpeggio![E,E]=D B,G, [E,D]2 | %118
 [E,,E,]2 !arpeggio![A,F]E CA, [E,CE]2 | [E,,E,]2 [A,A]2 [G,G]2 [E,=D]2 | %120
 [E,,E,]2 [A,CA]4 [^E,,C,^E,]2 | F,,C, A,2 G,,F, ^B,2 | A,,F, C2 ^A,,=G, C2 | %123
 =B,,2 [C,E]2 [=D,=D]2 [^D,F,^B,]2 | [E,G,C] z [F,A,=C]2 [G,B,] z [F,G,]E, | z CA,F, E,A,CC, | %126
 z CA,G, F,CA,F | z F,E=D CB,A,F, | z CA,F, z B,A,G, | z CA,F, E,A,CC, | z ^D^B,A, G,D^B,G | %131
 z!p! CFE z ^A,FE | !arpeggio![=B,,E]C[B,D]F [E,E]B,G,E, |!mf! [B,,,B,,]CB,F, =D,F,B,,^G,, | %134
 [C,,C,]F^EB, [F,,F,]CA,F, | [B,,,B,,]CB,F, =D,F,B,,=A,, | [G,,,G,,]^D,F,C ^B,D [G,F]2 | %137
 [E,,E,]2 [E,=DE]B, G,2 [E,,E,]2 | [E,,E,]2 [E,F]E C2 [E,,E,]2 | %139
 [E,,E,]2 [A,B,=DA]2 [G,G]2 [E,,E,]2 | [E,,E,]2 [A,CA]4 !arpeggio![^E,,C,A,]2 | %141
 F,C, A,2 F,^D, ^B,2 | F,C, C2 =G,E, C2 | [B,,F,]2 [C,E]2 [=D,=D]2 [^D,F,^B,]2 | %144
 [E,G,C] z [D,F,^B,]2 [E,G,C] z [F,A,][G,B,] | z CA,F, E,A,CC, | z ECB, A,ECA | %147
 z A,=F,E, =D,A,F,=D | z =F=D=C B,A,^G,^F, |!f! E,,E,^C=D E2 [E,CE]2 | %150
 E,,2 [E,=B,D]2 A,2 [E,G,D]2 | E,,E,C=D E2 [E,CE]2 | E,,2 [E,=B,D]2 A,2 [E,G,D]2 | %153
 =G,,E,C=D E2 [E,=G,CE]2 | [F,,F,]2 [F,A,=DF]2 [C,,C,]2[K:treble] [A,E=GA]2 | %155
[K:bass] [=D,,=D,]2[K:treble] [A,=DFA]2[K:bass] z2 [D,F,=D]2 | %156
 !arpeggio![A,,^E,C]B,A, z/ G,/ [=D,F,]2 =D z | !arpeggio![A,,^E,C]B,A, z/ G,/ [=D,F,]2 =D z | %158
 z2 [=D,F,^B,]2 [=B,,=B,][A,,A,][G,,G,][F,,F,] | z4 [A,,A,]4 | z4 [_B,,_B,]4 | z4 [E,,E,]4- | %162
 [E,,E,]2 [=F,,=F,]2 [A,,A,]2 [=D,,=D,]2 | z4 [^A,,^A,]4 | z4 [=B,,=B,]4 | z4 [^E,,^E,]4- | %166
 [E,,E,]2 [F,,F,]2 [^A,,^A,]2 [^D,,^D,]2 | z2 [^A,,C,^^F,]2 [C,F,^A,]2 [^^G,,^B,,^F,]2 | %168
 z2 [^A,,C,^^F,]2 [C,F,^A,]2 [^^G,,^B,,^F,]2 | z2 [^A,,C,^^F,]2 [C,F,^A,]2 [A,,C,F,]2 | %170
 [C,^^F,^A,]2 [E,,E,]2 (3[E,E][D,D][=D,=D] (3[C,C][=C,=C][B,,B,] | %171
 [^A,,^A,]2 [B,,B,]2 [=A,,B,,=A,]2 [G,,B,,G,]2 | %172
 [F,,B,,F,]2 [=F,,=F,]2 [E,,E,]2 (3[=D,=D][C,C][=C,=C] | %173
 [B,,B,]2 (3[^A,,^A,][=A,,=A,][G,,G,] [=G,,=G,]2 [^F,,B,,^F,]2 | %174
 [E,,B,,E,]2 [D,,D,]2 [=D,,=D,]2 [C,,C,]2 | z2 [D,,^^F,,^A,,D,]2 [E,,G,,C,E,]2 z2 | %176
 z2 [B,,,D,,^F,,B,,]2 [=C,,E,,=A,,=C,]2 (3[^C,,^C,][^^C,,^^C,][D,,D,] | %177
 [E,,E,]2 [A,,E,A,]2 [G,,E,G,]2 [E,,E,]2 | !///-!B,,,2 B,,2 B,,,2 z2 | %179
 [F,,A,,C,F,]2 z2 z2 (3[C,C][C,C][C,C] | [C,C]2 [E,E]2 [G,,G,]2 [^A,,^A,]2 | %181
 !arpeggio![G,,B,,B,]4- [G,,B,,B,] z (3[D,D][D,D][D,D] | [D,D]2 [F,F]2 [^A,,^A,]2 [B,,B,]2 | %183
 [^^C,,^^C,]2 [D,,D,]2 [E,,E,]2 [B,,B,]2 | [E,,E,]2 [D,,D,]2 [=D,,=D,]2 (3[C,,C,][C,,C,][C,,C,] | %185
 [C,,C,]2 [=E,,=E,]2 [F,,F,]2 [=D,,=D,]2 | [G,,G,]2 [F,,F,]2 [^^F,,^^F,]2 (3[G,,G,][G,,G,][G,,G,] | %187
 [G,,G,]2 [B,,B,]2 [^D,,^D,]2 [F,,F,]2 | [=D,,=D,]2 [C,,C,]2 [G,,G,]2 [F,,F,]2 | %189
 [B,,,B,,]3 z/ F,/ [CE]2 [B,D] z/ F,/ | [EG]2 [DF] z [C,C]2 [F,,F,]2 | %191
 [B,,,B,,]2 z z/ F,/ [CE]2 [B,D] z/ F,/ | [EG]2 [DF] z/ F,/ [F,CEB]2 ^A z | %193
 [B,,,B,,]2 [B,,B,][^A,,^A,] [=A,,=A,]2 [A,,,A,,][G,,,G,,] | %194
 [=G,,,=G,,]2 [=D,=G,B,][D,G,B,] [D,G,B,]2 [B,=D=G]2 | [=D,,=D,]2 [D,A,=C]2 =G,2 [D,F,C]2 | %196
 [=G,,,=G,,]2 [=D,=G,B,][D,G,B,] [D,G,B,]2 [B,=D=G]2 | [=D,,=D,]2 [D,A,=C]2 =G,2 [D,F,C]2 | %198
 [B,,,B,,]2 [A,B,F][A,B,F] [A,B,F]2 !arpeggio![=G,B,=G]2 | %199
 [F,A,=D]2 !arpeggio![E,=G,E]2 [^D,F,B,]2 !arpeggio![=D,F,=C]2 | %200
 [=G,,,=G,,]2 [=F,B,=D][F,B,D] [F,B,D]2 [G,,F,]2 | [E,,=G,]2 [G,=CE]2 [B,,,B,,]2 [G,=D=F=G]2 | %202
 [=C,,=C,]2 [=G,=CE=G]2 z2 [C,E,C]2 | !arpeggio![=G,,^D,B,]A,=G, z/ F,/ [=C,E,]2 =C z | %204
 !arpeggio![=G,,^D,B,]A,=G, z/ F,/ [=C,E,]2 =C z | [B,,E,]2 B, z [^A,,E,]2 ^A, z | %206
 [=A,,=A,][=G,,=G,][F,,F,][E,,E,] [B,,B,][A,,A,][G,,G,][F,,F,] | %207
 [=C,=C][B,,B,][A,,A,][^G,,^G,] [=D,=D][C,C][B,,B,][A,,A,] | %208
 [=D,=D][=C,=C][B,,B,][A,,A,] [D,D][C,C][B,,B,][A,,A,] | %209
 [=D,=D][=C,=C][B,,B,][A,,A,] [D,D][C,C][B,,B,][A,,A,] | [=D,,=D,]2 [E,E]2 [D,,D,]2 [A,,A,]2 | %211
 [C,,C,]2 [E,E]2 [=C,,=C,]2 [A,,A,]2 | z [B,,,B,,][B,,G,][B,,A,] [B,,B,]2 [G,B,E]2 | %213
[K:treble] [B,CA]2 ED C2[K:bass] !arpeggio![B,,A,D]2 | %214
 z [B,,,B,,][B,,G,][B,,A,] [B,,B,]2 [G,B,E]2 | %215
[K:treble] [B,CA]2 ED C2[K:bass] !arpeggio![B,,A,D]2 | %216
 z [=D,,=D,][B,,B,][C,C] [D,E,=D]2 [D,,E,,D,]2 | [C,,E,,C,]2 [E,A,CE]2 [G,,,G,,]2 [E,B,=DE]2 | %218
 [A,,,A,,]2 [E,A,CE]2 z2 !arpeggio![^A,,E,F,C]2 | %219
 [C,,C,][^A,,,^A,,][B,,,B,,] z/ [E,,E,]/ [E,,E,][^^C,,^^C,][D,,D,] z/ [F,,F,]/ | %220
 [F,,F,][D,,D,][E,,E,] z/ [G,,G,]/ [G,,G,][F,,F,][D,,D,][C,,C,] | %221
 [C,,C,][^A,,,^A,,][B,,,B,,] z/ [E,,E,]/ [E,,E,][^^C,,^^C,][D,,D,] z/ [F,,F,]/ | %222
 [F,,F,][D,,D,][E,,E,] z/ [G,,G,]/ [G,,G,][F,,F,][D,,D,][C,,C,] | %223
 [C,,C,][B,,,B,,][^B,,,^B,,] z [C,E,^^F,C]3 z/ [C,,C,]/ | %224
 [C,,C,][B,,,B,,][^B,,,^B,,] z [C,E,=G,C]3 z | [=D,=F,=D]3 z [=C,E,=C]3 z | %226
 [^C,E,^F,^C]2 [E,E]2 [=A,,E,F,=A,]2 [E,E]2 | [B,,E,B,]2 [E,E]2 [=G,,B,,E,=G,]2 [E,E]2 | %228
 [=C,=C]2 [E,E]2 [B,,,B,,]2 [D,D]2 | [^B,,,^B,,]2 [D,,D,][G,,G,] [B,,^B,]2 (3[^C,^C][C,C][C,C] | %230
 [C,C]2 [E,E]2 [=C,=C]2 [E,E]2 | [B,,B,]2 [E,E]2 [^A,,^A,]2 [E,E]2 | %232
 [=A,,C,E,=A,]2 [G,,G,]2 [=G,,=G,]2 [F,,F,]2 | [A,,A,]2 [F,,F,]2 [=E,,=E,]2 [B,,,B,,]2 | %234
 [E,,E,]3 z/[K:] D/ [Ac]2 [GB] z/ D/ | [ce]2 [Bd] z[K:bass] [F,F]2 [B,,B,]2 | %236
 [E,,E,]3 z [B,,B,]2 [E,E] z | [E,E]2 [G,G] z [F,F]2 [B,,B,]2 | [E,,E,]2 z2 [^B,,^B,]4 | %239
 z4 [C,C]4 | z4 [^^F,,^^F,]4- | [F,,F,]2 [G,,G,]2 [=B,,=B,]2 [G,,G,]2 | [E,,E,]2 z2 [^B,,^B,]4 | %243
 z4 [C,C]4 | z4 [^A,,^A,]4- | [A,,A,]2 [C,E,C]2 [=B,,E,=B,]2 [G,,E,G,]2 | %246
 [E,,E,]2 (3E,E,E, E,G,B,,G, | [E,,B,,E,]2 (3G,G,G, G,B,E,B, | %248
 [E,,B,,E,]2 z2 [C,C][E,E][A,,A,][E,E] | [E,,E,]2 z2 [C,C][E,E][A,,A,][E,E] | %250
 [E,,E,]2 z2 [A,,A,][C,C][F,,F,][C,C] | [E,,E,]3 z [B,,,B,,]3 z | %252
 [G,,,G,,]3 [A,,,A,,] [B,,,B,,]2 [C,,C,][^^C,,^^C,] | %253
!<(! [D,,D,][E,,E,][F,,F,][G,,G,] [A,,A,][B,,B,][C,C][D,D]!<)! |!ff! [E,E]2 z2 [G,B,EG]2 z2 | %255
 [E,,B,,E,]8 |] %256
V:4
 !^!E,,8 | !^!E,,8 | z4 [^^F,,,^^F,,]4- | [F,,,F,,]2 .[G,,,G,,]2 .[=B,,,=B,,]2 .[G,,,G,,]2 | x8 | %5
 x8 | x8 | x8 | x8 | x8 | x8 | !///-!B,,,4 B,,4 | x8 | x8 | G,,2 z2 z4 | x8 | x8 | x8 | x8 | x8 | %20
 x8 | x8 | x8 | x8 | x8 |[K:treble] x8 |[K:bass] x8 | x8 | x8 | x8 | x8 | =D,6 =C,2 | x8 | x8 | %34
 x8 | x2[K:treble] x6 |[K:bass] x8 | x8 | x8 | !arpeggio!B,A,=G, z/ F,/ =C,3 z | %40
 !arpeggio!B,A,=G, z/ F,/ =C,3 z | x8 | x6[K:treble] x2 | x2[K:bass] x6 | x6[K:treble] x2 | %45
 x2[K:bass] x6 | x6[K:treble] x2 |[K:bass] z4 [^E,,^E,]4 | z4 [F,,F,]4 | z4 [^B,,,^B,,]4- | %50
 [B,,,B,,]2 [C,,C,]2 [E,,E,]2 [F,,,F,,]2 | x8 | B,,8 | B,,8- | B,,6 z2 | x8 | x8 | x8 | %58
 z2 ^E,2 F,2 E,2 | F,2 ^E,2 F,2 =F,2 | F,2 z2 z4 | x8 | [G,,B,,]4 E,, z (3G,G,G, | x8 | x8 | x8 | %66
 x8 | x8 | x8 | x8 | x8 | x8 | x8 | x8 | x8 | x8 | x8 | x8 | x8 | x8 | x8 | x8 | x8 | x8 | x8 | %85
 x8 | x7/2[K:treble] x9/2 | x4[K:bass] x4 | x8 | x8 | x8 | x8 | x8 | x8 | x8 | x8 | x8 | %97
 A,,2 z2 z4 | F,,2 z2 z4 | B,,2 z2 =D,2 z2 | ^D,3 B,, z4 | A,,2 z2 z4 | G,,2 z2 z4 | x8 | B,4 E,4 | %105
 A,,2 z2 z4 | F,,2 z2 z4 | B,,2 z2 =D,2 z2 | ^D,3 B,, z4 | A,,2 z2 z4 | G,,2 z2 z4 | x8 | B,4 z4 | %113
 B,,2 z2 z4 | x8 | B,,2 z2 z4 | x8 | x8 | x8 | z2 [B,=D]4 z2 | x8 | F,,4 G,,4 | A,,4 ^A,,4 | %123
 F,2- F,4 z2 | x8 | A,,2 z2 z4 | A,,2 z2 z4 | A,,2 z2 z2 z2 | A,,2 z2 z4 | A,,2 z2 z4 | %130
 G,,2 z2 z4 | E, G,2 z =C, F,2 z | x8 | x8 | x8 | x8 | x8 | x8 | x8 | x8 | x8 | F,,3 z G,,3 z | %142
 A,,3 z ^A,,3 z | F,6 x2 | x8 | A,,2 z2 z4 | =G,,2 z2 z4 | =F,,2 z2 =D,4 | =D,,2 z2 z2 ^D,2 | x8 | %150
 x8 | x8 | x8 | x8 | x6[K:treble] x2 |[K:bass] x2[K:treble] x2[K:bass] x4 | x8 | x8 | x8 | C,8 | %160
 C,8 | C,8- | C,6 z2 | =D,8 | =D,8 | =D,8 | x8 | x8 | x8 | x8 | x8 | x8 | x8 | x8 | x8 | x8 | x8 | %177
 x8 | F,,4 z4 | x8 | x8 | x8 | x8 | x8 | x8 | x8 | x8 | x8 | x8 | x8 | x8 | x8 | x8 | x8 | x8 | %195
 x8 | x8 | x8 | x8 | x8 | x8 | x8 | x8 | x8 | x8 | x8 | x8 | x8 | x8 | x8 | x8 | x8 | x8 | %213
[K:treble] x6[K:bass] x2 | x8 |[K:treble] x6[K:bass] x2 | x8 | x8 | x8 | x8 | x8 | x8 | x8 | x8 | %224
 x8 | x8 | x8 | x8 | x8 | x8 | x8 | x8 | x8 | x8 | x7/2[K:] x9/2 | x4[K:bass] x4 | x8 | x8 | x8 | %239
 E,8 | E,8- | E,6 z2 | x8 | E,8 | E,8- | E,2 z2 z4 | x8 | x8 | x8 | x8 | x8 | x8 | x8 | x8 | x8 | %255
 x8 |] %256
V:5
 x8 | x8 | x8 | x8 | x8 | x8 | x8 | x8 | x8 | x8 | x8 | x8 | x8 | x8 | x8 | x8 | x8 | x8 | x8 | %19
 x8 | x8 | x8 | x8 | x8 | x8 |[K:treble] x8 |[K:bass] x8 | x8 | x8 | x8 | x8 | A,2 F,2 =G,2 F,E, | %32
 x8 | x8 | x8 | x2[K:treble] x6 |[K:bass] x8 | x8 | x8 | x8 | x8 | x8 | x6[K:treble] x2 | %43
 x2[K:bass] x6 | x6[K:treble] x2 | x2[K:bass] x6 | x6[K:treble] x2 |[K:bass] x8 | x8 | x8 | x8 | %51
 x8 | x8 | x8 | x8 | x8 | x8 | x8 | x8 | x8 | x8 | x8 | x8 | x8 | x8 | x8 | x8 | x8 | x8 | x8 | %70
 x8 | x8 | x8 | x8 | x8 | x8 | x8 | x8 | x8 | x8 | x8 | x8 | x8 | x8 | x8 | x8 | %86
 x7/2[K:treble] x9/2 | x4[K:bass] x4 | x8 | x8 | x8 | x8 | x8 | x8 | x8 | x8 | x8 | x8 | x8 | x8 | %100
 x8 | x8 | x8 | x8 | x8 | x8 | x8 | x8 | x8 | x8 | x8 | x8 | x8 | x8 | x8 | x8 | x8 | x8 | x8 | %119
 x8 | x8 | x8 | x8 | x8 | x8 | x8 | x8 | x8 | x8 | x8 | x8 | x8 | x8 | x8 | x8 | x8 | x8 | x8 | %138
 x8 | x8 | x8 | x8 | x8 | x8 | x8 | x8 | x8 | x8 | x8 | x8 | x8 | x8 | x8 | x8 | x6[K:treble] x2 | %155
[K:bass] x2[K:treble] x2[K:bass] x4 | x8 | x8 | x8 | x8 | x8 | x8 | x8 | x8 | x8 | x8 | x8 | x8 | %168
 x8 | x8 | x8 | x8 | x8 | x8 | x8 | x8 | x8 | x8 | x8 | x8 | x8 | x8 | x8 | x8 | x8 | x8 | x8 | %187
 x8 | x8 | x8 | x8 | x8 | x8 | x8 | x8 | x8 | x8 | x8 | x8 | x8 | x8 | x8 | x8 | x8 | x8 | x8 | %206
 x8 | x8 | x8 | x8 | x8 | x8 | x8 |[K:treble] x6[K:bass] x2 | x8 |[K:treble] x6[K:bass] x2 | x8 | %217
 x8 | x8 | x8 | x8 | x8 | x8 | x8 | x8 | x8 | x8 | x8 | x8 | x8 | x8 | x8 | x8 | x8 | %234
 x7/2[K:] x9/2 | x4[K:bass] x4 | x8 | x8 | x8 | x8 | x8 | x8 | x8 | x8 | x8 | x8 | x8 | x8 | x8 | %249
 x8 | x8 | x8 | x8 | x8 | x8 | x8 |] %256

